src/dsmComponents/Icons/settings-gear-20px.svg

<svg width="20" height="20" xmlns="http://www.w3.org/2000/svg" xmlns:xlink="http://www.w3.org/1999/xlink"><defs><path d="M16.625 6.5L18 3.875l-1.75-1.75L13.625 3.5c-.375-.25-.875-.375-1.375-.5l-1-3h-2.5l-1 2.875c-.375.125-.875.25-1.25.5L3.875 2 2 3.875 3.375 6.5c-.25.375-.375.875-.5 1.25L0 8.75v2.5l2.875 1c.125.5.375.875.5 1.375L2 16.25 3.75 18l2.625-1.375c.375.25.875.375 1.375.5l1 2.875h2.5l1-2.875c.5-.125.875-.375 1.375-.5L16.25 18 18 16.25l-1.375-2.625c.25-.375.375-.875.5-1.375l2.875-1v-2.5l-2.875-1c-.125-.375-.25-.875-.5-1.25zM10 13.75c-2.125 0-3.75-1.625-3.75-3.75S7.875 6.25 10 6.25s3.75 1.625 3.75 3.75-1.625 3.75-3.75 3.75z" id="settings-gear-20px_svg__a"/></defs><use fill="#737373" xlink:href="#settings-gear-20px_svg__a" fill-rule="evenodd"/></svg>

<?xml version="1.0" encoding="UTF-8"?>
<svg width="20px" height="20px" viewBox="0 0 20 20" version="1.1" xmlns="http://www.w3.org/2000/svg" xmlns:xlink="http://www.w3.org/1999/xlink">
    <!-- Generator: Sketch 59.1 (86144) - https://sketch.com -->
    <title>settings-gear-20px</title>
    <desc>Created with Sketch.</desc>
    <defs>
        <path d="M16.625,6.5 L18,3.875 L16.25,2.125 L13.625,3.5 C13.25,3.25 12.75,3.125 12.25,3 L11.25,0 L8.75,0 L7.75,2.875 C7.375,3 6.875,3.125 6.5,3.375 L3.875,2 L2,3.875 L3.375,6.5 C3.125,6.875 3,7.375 2.875,7.75 L0,8.75 L0,11.25 L2.875,12.25 C3,12.75 3.25,13.125 3.375,13.625 L2,16.25 L3.75,18 L6.375,16.625 C6.75,16.875 7.25,17 7.75,17.125 L8.75,20 L11.25,20 L12.25,17.125 C12.75,17 13.125,16.75 13.625,16.625 L16.25,18 L18,16.25 L16.625,13.625 C16.875,13.25 17,12.75 17.125,12.25 L20,11.25 L20,8.75 L17.125,7.75 C17,7.375 16.875,6.875 16.625,6.5 Z M10,13.75 C7.875,13.75 6.25,12.125 6.25,10 C6.25,7.875 7.875,6.25 10,6.25 C12.125,6.25 13.75,7.875 13.75,10 C13.75,12.125 12.125,13.75 10,13.75 Z" id="path-1"></path>
    </defs>
    <g id="Final" stroke="none" stroke-width="1" fill="none" fill-rule="evenodd">
        <g id="All-Nucleo-Icons" transform="translate(-463.000000, -5526.000000)">
            <g id="Solo/Nucleo/20px/settings-gear" transform="translate(461.000000, 5524.000000)">
                <g transform="translate(2.000000, 2.000000)" id="settings-gear">
                    <g>
                        <g id="Colour/Default-Colour">
                            <mask id="mask-2" fill="white">
                                <use xlink:href="#path-1"></use>
                            </mask>
                            <g id="Mask" fill-rule="nonzero"></g>
                            <g id="colour/neutral/chia" mask="url(#mask-2)" fill="#737373">
                                <g transform="translate(-22.000000, -22.000000)" id="Colour">
                                    <rect x="0" y="0" width="64" height="64"></rect>
                                </g>
                            </g>
                        </g>
                    </g>
                </g>
            </g>
        </g>
    </g>
</svg>
